packages/docs/public/logos/qwik-logo.svg

<svg viewBox="0 0 518 518" fill="none" xmlns="http://www.w3.org/2000/svg">
<path d="M387.18 455.506L316.64 385.316L315.634 385.491V384.747L165.632 236.407L202.673 200.721L180.895 75.9091L77.8172 203.783C60.3242 221.451 56.9568 250.358 69.6392 271.568L134.057 378.494C143.897 394.893 159.378 405.433 180.982 404.646C226.726 403.027 246.843 403.028 246.843 403.028L387.137 455.463L387.18 455.506Z" fill="#18B6F6"/>
<path d="M422.029 258.842C432.175 237.894 435.805 219.57 425.79 201.159L411.533 174.919L404.143 161.45L401.256 156.202L400.994 156.508L362.203 89.2037C352.407 72.1918 334.302 61.8273 314.579 62.0022L280.555 62.9643L179.008 63.2267C159.81 63.4016 142.185 73.5038 132.433 90.0784L70.7266 212.617L181.151 75.2531L325.993 234.527L300.059 260.81L315.541 385.403L315.759 385.141V385.491H315.541L315.847 385.797L327.917 397.561L386.343 454.632C388.792 456.993 392.772 454.151 391.154 451.221L355.031 380.156" fill="#AC7EF4"/>
<path d="M326.341 234.133L181.105 75.6467L201.747 199.759L164.793 235.62L315.276 385.185L301.719 261.028L326.341 234.177V234.133Z" fill="white"/>
</svg>

<svg xmlns="http://www.w3.org/2000/svg" fill="none" viewBox="0 0 518 518"><path fill="#18B6F6" d="m387.18 455.5-70.54-70.18-1 .17v-.74l-150-148.34 37.03-35.69L180.9 75.91 77.82 203.78c-17.5 17.67-20.86 46.58-8.18 67.79l64.42 106.92c9.84 16.4 25.32 26.94 46.92 26.16 45.75-1.62 65.86-1.62 65.86-1.62l140.3 52.43.04.05Z"/><path fill="#AC7EF4" d="M422.03 258.84c10.15-20.95 13.78-39.27 3.76-57.68l-14.26-26.24-7.39-13.47-2.88-5.25-.27.3-38.79-67.3A54.24 54.24 0 0 0 314.58 62l-34.02.96-101.55.27a54.45 54.45 0 0 0-46.58 26.85l-61.7 122.54L181.15 75.25 326 234.53l-25.93 26.28 15.48 124.6.22-.27v.35h-.22l.3.3 12.08 11.77 58.42 57.07c2.45 2.36 6.43-.48 4.81-3.4l-36.12-71.07"/><path fill="#fff" d="M326.34 234.13 181.11 75.65l20.64 124.1-36.96 35.87 150.49 149.56-13.56-124.15 24.62-26.85v-.05Z"/></svg>
